X:1
T:Hark, jolly shepherds - Morley
T:#
%%score { 1 | 2 } 3 4
L:1/8
Q:1/4=120
M:4/4
K:C
V:1 treble nm="Soprano I" snm="S"
V:2 treble 
V:3 treble nm="Alto" snm="A"
V:4 treble nm="Tenor" snm="T"
V:1
 d4 GA"^Hark, jolly shepherds"Bc | d4 z2 d2- | dd"^Thomas Morley\n(1557-1603)" ^c2 d2 A2 | %3
w: Hark, jol- ly shep- herds,|hark: hark|* you yon lus- ty|
[M:4/4] B2 B2 z2 c2- | cc B2 c2 G2 | ABcd e2 e2 | d2 g2 cdef | g2 G2 ABcd | e3 (d/c/ B)ABc | %9
w: ring- ing, hark|* a- las hark how|cheer- ful- ly the bells dance,|hark how cheer- ful- ly the|bells, how cheer- ful- ly the|bells dance, * * the whilst the|
 d2 B2 A4 | B8 | _B8 | A8 | z4 B4 | c6 c2 | B2 B2 A4 | B8 | z2 g3 f e2 | d2 c2 (c2 B2) | %19
w: lads are spring-|ing.|Go,|then,|why|sit we|here de- lay-|ing,|sit we thus|here de- lay\- *|
 c2 c4 B2- | BA G2 A4 | B2 d2 e2 d2- | dd c2 B4 | A4 z4 | z2 e2 d2 c2 | Bcdc Bcde | %26
w: ing, why sit|* we de- lay-|ing, why then sit|* we de- lay-|ing,|and all yon|mer- ry, mer- ry, mer ry wan- ton|
 ^f2 g2 (g2 f2) | g6 g2 | f3 f edec | d2 B2 cBcd | e2 c2 c2 B2 | c2 c2 B2 d2 | d4 d2 g2 | %33
w: lass- es play\- *|ing, and|all yon mer- ry, mer- ry|lads and mer- ry, mer- ry|wan- ton lass- es,|wan- ton lass- es|play- ing, and|
 f3 f edec | d2 g4 ^f2 | g2 d4 G2 | A2 B2 A4 | A8 | z4 d4 | a6 g2 | f4 f4 | e8 | d4 D4 | d4 B4 | %44
w: all you mer- ry, mer- ry|lads, mer- ry|lads, lads, and|lass- es play-|ing.|Now|gai- ly|Flo- ra|leads|it and|sweet- ly|
 A8 | B8- | B8 | d4 g4- | g2 f2 e2 a2 | g8 | g2 e4 d2- | dd c2 B4 | ^c2 e2 d2 =c2 | c (BBA/G/) A4 | %54
w: treads|it.||The woods|* and groves they|ring,|they ring loud\-|* ly re- sound-|ing, with e- cho|sweet re\- * * * bound-|
 B8- | B8 | d4 g4- | g2 f2 e2 a2 | g8 | g2 e4 d2- | dd c2 B4 | ^c4 e4 | d2 d2 c4- | c4 B4 | A8 | %65
w: ing,||the woods|* and groves they|ring,|they ring loud\-|* ly re- sound-|ing, with|e- cho sweet|* re-|bound-|
 !fermata!B8 |] %66
w: ing.|
V:2
 z4 d4 | GABc d4 | z2 g3 g ^f2 |[M:4/4] g2 d2 e2 e2 | d4 e2 g2 | cdef g2 g2 | z2 d2 e2 c2 | %7
w: Hark,|jol- ly shep- herds, hark:|hark you yon|lus- ty ring- ing,|ring- ing, how|cheer- ful- ly the bells dance,|the bells they|
 B2 g2 cdef | g3 (f/e/ d)^cde | ^f2 g2 (g2 f2) | g8 | d8 | d8 | z4 d4 | e6 e2 | d2 d2 d4 | %16
w: dance, how cheer- ful- ly the|bells dance, * * the whilst the|lads are spring\- *|ing.|Go|then,|why|sit we|here de- lay-|
 d4 z2 g2- | gf e2 d2 c2 | (B2 c2) d2 g2 | f2 e4 d2- | dd ^c2 d4 | d2 g3 g f2 | e8 | e2 e2 e2 f2 | %24
w: ing, sit|* we here thus de-|lay\- * ing, why|then why sit|* we de- lay-|ing, sit we de-|lay-|ing, and all yon|
 g3 g f2 e2 | dcBc d2 B2 | A2 G2 A4 | B8 | z8 | z8 | z2 g2 f3 f | edec d2 B2 | A4 B4 | z8 | %34
w: mer- ry lass- es,|mer- ry, mer- ry wan- ton|lass- es play-|ing,|||and all yon|mer- ry, mer- ry lass- es|play- ing,||
 z2 d2 c3 c | BABG A2 d2 | ^c2 d2 (d2 c2) | d8 | z4 z2 d2 | f4 e4 | ^e2 d2 (d4- | d4 ^c4) | d4 B4 | %43
w: and all yon|mer- ry, mer- ry lads and|lass- es play\- *|ing.|Now|gai- ly|Flo- ra leads||it, and|
 A4 d4 | d8 | d8 | z4 d4 | g6 f2 | e2 a2 g2 f2- | f2 e2 d4 | e2 g3 g f2 | e8 | e2 c2 B2 e2 | %53
w: sweet- ly|treads|it.|The|woods and|groves they ring, woods|* and groves|ring loud- ly re-|sound-|ing with e- cho|
 d2 d2 d4 | d8 | z4 d4 | g6 f2 | e2 a2 g2 f2- | f2 e2 d4 | e2 g3 g f2 | e8 | e4 c4 | B2 B2 e4 | %63
w: sweet re- bound-|ing,|the|woods and|groves they ring, woods|* and groves|ring loud- ly re-|sound-|ing, with|e- cho sweet|
 d8 | d8 | !fermata!d8 |] %66
w: re-|bound-|ing.|
V:3
 z8 | z2 G3 G ^F2 | G2 E2 D2 D2 |[M:4/4] z2 G2 CDEF | G2 G2 z2 E2 | F2 ED C2 c2- | cc B2 A2 A2 | %7
w: |Hark you yon|lus- ty ring- ing,|how cheer- ful- ly the|bells dance, hark|how cheer- ful- ly, cheer\-|* ful- ly dance the|
 G2 E2 F2 ED | CDEF G2 G2 | D8 | G8 | G8 | ^F8 | z4 G4 | G4 G2 A2- | AG (G4 ^F2) | G4 z2 G2 | %17
w: bells, while yon jol- ly,|jol- ly, jol- ly lads are|spring-|ing.|Go|then,|why|sit we here|* de- lay\- *|ing, why|
 AB c2 G2 G2- | G (F E2) D2 D2 | CDEF G4 | A,2 (G4 ^F2) | G2 G2 E2 A2 | ^G2 (A4 G2) | A2 c2 B2 A2 | %24
w: do we here sit de\-|* lay\- * ing, go|then why sit we here|de- lay\- *|ing, sit we here|de- lay\- *|ing, and all yon|
 G3 G A2 A2 | D6 D2 | D2 B,2 D4 | D6 G2 | A3 B cBcA | B2 G2 AGAB | c2 G2 d4 | G3 A ^F2 G2- | %32
w: mer- ry, mer- ry|wan- ton|lass- es play-|ing, and|all yon mer- ry, mer- ry|lads and mer- ry, mer- ry|lass- es so|mer- ri- ly play\-|
 (G2 ^F2) G2 G2 | A3 B cBcA | B2 G2 E2 C2 | D3 E ^F2 D2 | E2 G2 E4 | ^F4 z2 A2 | c4 B2 A2- | %39
w: * * ing, and|all yon mer- ry, mer- ry|wan- ton lass- es,|mer- ry wan- ton|lass- es play-|ing. Now|gai- ly Flo\-|
 A2 D2 E4 | F3 G A2 A2 | A4 E4 | A4 G4 | ^F4 (G4- | G4 ^F4) | G4 G4 | d6 c2 | B2 A2 G2 (AB) | %48
w: * ra fair,|gai- ly how she|leads it,|and sweet-|ly treads||it. The|woods and|groves they ring, they *|
 c2 (AB) c2 A2 | B2 c4 B2 | c2 c3 B A2 | (^G2 A4 G2) | A2 E2 G3 A | ^F2 G4 F2 | G4 G4 | d6 c2 | %56
w: ring, they * ring, woods|and groves they|ring loud- ly re-|sound\- * *|ing, with e- cho|sweet re- bound-|ing, the|woods and|
 B2 A2 G2 (AB) | c2 (AB) c2 A2 | B2 c4 B2 | c2 c3 B A2 | (^G2 A4 G2) | A4 A4- | A2 G4 A2 | %63
w: groves they ring, they *|ring, they * ring, woods|and groves they|ring loud- ly re-|sound\- * *|ing, with|* e- cho|
 ^F4 G4- | G4 ^F4 | !fermata!G8 |] %66
w: sweet re\-|* bound-|ing.|
V:4
 z8 | z8 | z8 |[M:4/4] z8 | z8 | z8 | z8 |[M:4/4] z8 | z8 | z8 | z8 |[M:4/4][K:treble-8] G8 | d8 | %13
w: |||||||||||Go|then,|
 z4 G4 | c6 A2 | B3 c d4 | G2 g3 f e2 | d2 c2 (B2 c2) | G4 z2 G2 | ABcd e (f g2- | gf e2) d4 | %21
w: why|sit we|here de- lay-|ing, sit we here|thus de- lay\- *|ing, go,|why then sit we here de\- *|* * * lay-|
 G2 G2 c2 d2 | e8 | c2 A2 G2 F2 | E3 E F2 F2 | G4 G4 | D8 | G8 | z8 | z2 g2 f3 f | edec d2 d2 | %31
w: ing, sit we de-|lay-|ing, and all yon|mer- ry wan- ton|lass- es|play-|ing,||and all yon|mer- ry, mer- ry wan- ton,|
 c3 A B2 G2 | d4 G4 | z2 d2 c3 c | BABG A2 A2 | G2 G2 d2 B2 | A2 G2 A4 | D2 d2 f4 | e4 d4- | %39
w: wan- ton lass- es|play- ing,|and all yon|mer- ry, mer- ry wan- ton,|mer- ry wan- ton|lass- es play-|ing. Now gai-|iy Flo\-|
 d2 d2 ^c4 | d4 D4 | A6 G2 | ^F4 G4 | D8- | D8 | G8 | G4 g4- | g2 f2 e2 d2 | c2 d2 e2 f2 | g8 | %50
w: * ra leads|it, and|how she|sweet ly|treads||it.|The woods|* and groves they|ring loud- ly re-|sound-|
 c2 c3 c d2 | e8 | A2 A2 B2 c2 | d8 | G8 | G4 g4- | g2 f2 e2 d2 | c2 d2 e2 f2 | g8 | c2 c3 c d2 | %60
w: ing, loud- ly re-|sound-|ing, with e- cho|bound-|ing,|the woods|* and groves they|ring loud- ly re-|sound-|ing, loud- ly re-|
 e8 | A4 A4 | B4 c4 | d4 d4 | d8 | !fermata!G8 |] %66
w: sound-|ing, with|e- cho|sweet re-|bound-|ing.|

